svg/alphabetical.svg

<svg xmlns="http://www.w3.org/2000/svg" viewBox="0 0 24 24"><path d="M6 11a2 2 0 0 1 2 2v4H4a2 2 0 0 1-2-2v-2a2 2 0 0 1 2-2zm-2 2v2h2v-2zm16 0v2h2v2h-2a2 2 0 0 1-2-2v-2a2 2 0 0 1 2-2h2v2zm-8-6v4h2a2 2 0 0 1 2 2v2a2 2 0 0 1-2 2h-2a2 2 0 0 1-2-2V7zm0 8h2v-2h-2z"/></svg>

<?xml version="1.0" encoding="UTF-8"?><!DOCTYPE svg PUBLIC "-//W3C//DTD SVG 1.1//EN" "http://www.w3.org/Graphics/SVG/1.1/DTD/svg11.dtd"><svg xmlns="http://www.w3.org/2000/svg" xmlns:xlink="http://www.w3.org/1999/xlink" version="1.1" id="mdi-alphabetical" width="24" height="24" viewBox="0 0 24 24"><path d="M6,11A2,2 0 0,1 8,13V17H4A2,2 0 0,1 2,15V13A2,2 0 0,1 4,11H6M4,13V15H6V13H4M20,13V15H22V17H20A2,2 0 0,1 18,15V13A2,2 0 0,1 20,11H22V13H20M12,7V11H14A2,2 0 0,1 16,13V15A2,2 0 0,1 14,17H12A2,2 0 0,1 10,15V7H12M12,15H14V13H12V15Z" /></svg>
